X:1
T:Title
%%score { ( 1 3 ) | 2 }
L:1/8
Q:1/4=110
M:2/2
K:C
V:1 treble nm="Grand Piano"
V:3 treble 
V:2 bass 
V:1
 E2 E2 E2 [DF]2 | [EG]2 .[Ec]6 | [EG]2 [EG]2 [DF]2 [CE]2 | [B,D]8 | E2 E2 E2 [DF]2 | [EG]2 .[Ec]6 | %6
w: W.~J.~Kirkpatrick * * *||||||
 B2 G2 A2 ^F2 | G8 | [Ec]2 [Ec]2 [EG]2 [EG]2 | [EA]2 [EA]2 E2 E2 | F2 E2 D2 C2 | G4[K:bass] z4 | %12
w: ||||||
 [Ec]2 [Ec]2 [EG]2 [EG]2 | A2 .c6 | B2 B2 A2 B2 | [Ec]8 |] %16
w: ||||
V:2
 [C,G,C]2 [C,G,C]2 [C,G,C]2 [C,G,]2 | [C,C]2 .[C,G,]6 | [C,G,]2 [C,G,]2 [B,,G,]2 [C,G,]2 | %3
 [G,,G,]8 | [C,G,C]2 [C,G,C]2 [C,G,C]2 [C,G,]2 | [C,C]2 .[C,G,]6 | %6
 [D,G,D]2 [D,B,D]2 [D,CD]2 [D,A,D]2 | [G,B,D]8 | [C,G,]2 [C,G,]2 [C,C]2 [C,C]2 | %9
 [C,C]2 [C,C]2 [C,G,C]2 [C,G,C]2 | F,2 E,2 D,2 C,2 | [G,B,]4 z4 | [C,G,]2 [C,G,]2 [C,C]2 [C,C]2 | %13
 [F,CF]2[K:treble] .[F,A,F]6 | [G,F]2 [G,F]2 [G,F]2 [G,F]2 | [C,G,]8 |] %16
V:3
 x8 | x8 | x8 | x8 | x8 | x8 | x8 | x8 | x8 | x8 | x8 | z2[K:bass] F,2 E,2 D,2 | x8 | x8 | x8 | %15
 x8 |] %16

